icons/1_Primary/Porkbun.svg

<svg width="1024" height="1024" fill="none" xmlns="http://www.w3.org/2000/svg"><g clip-path="url(#a)"><path d="M512 1024c282.77 0 512-229.23 512-512S794.77 0 512 0 0 229.23 0 512s229.23 512 512 512Z" fill="#FF837D"/><path d="M302.44 417.44a122.67 122.67 0 0 1-24.28-74.11 120.816 120.816 0 0 1 11.5-52.39 443.231 443.231 0 0 1 108.62 40.89c-39.62 19.17-71.56 49.83-95.84 85.61Zm419.13 0a122.67 122.67 0 0 0 24.28-74.11c0-19.17-3.83-37.06-11.5-52.39a359.677 359.677 0 0 0-108.62 40.89c38.33 19.17 71.55 49.83 95.83 85.61h.01ZM569.5 476.22a14.179 14.179 0 0 0-14.06 14.06c0 2.56 1.28 5.11 2.56 7.67 5.11 7.67 12.78 12.78 21.72 15.33a40.824 40.824 0 0 0 3.83-17.89V489c-1.27-7.67-6.38-12.78-14.05-12.78Zm173.78 76.67v138a42.173 42.173 0 0 1-12.351 29.819 42.173 42.173 0 0 1-59.638 0 42.173 42.173 0 0 1-12.351-29.819v-34.5H362.49v34.5a42.178 42.178 0 0 1-12.351 29.819 42.184 42.184 0 0 1-29.819 12.351 42.174 42.174 0 0 1-38.96-26.032 42.178 42.178 0 0 1-3.21-16.138V559.28c0-126.5 98.39-233.84 224.9-239 132.9-5.07 241.51 100.99 240.24 232.61h-.01Zm-108.61-56.22c-3.83-1.28-7.67-1.28-10.22 2.56-3.83 5.11-8.94 10.22-15.33 12.78v-5.11c0-14.06-5.11-25.56-12.78-35.78-6.39-8.94-15.33-14.06-26.83-14.06-17.89 0-33.22 15.33-33.22 33.22a32.237 32.237 0 0 0 7.66 21.72c5.11 7.67 12.78 12.78 20.45 16.61-5.11 2.56-11.5 5.11-17.89 5.11a14.06 14.06 0 1 0 0 28.11h6.39a56.13 56.13 0 0 0 49.84-30.67c14.06-5.11 25.56-14.06 33.22-26.83 2.54-3.83 1.27-8.94-1.29-7.66Z" fill="#fff"/></g><defs><clipPath id="a"><path fill="#fff" d="M0 0h1024v1024H0z"/></clipPath></defs></svg>

<svg width="1024" height="1024" viewBox="0 0 1024 1024" fill="none" xmlns="http://www.w3.org/2000/svg">
<g clip-path="url(#clip0_2_3180)">
<path d="M512 1024C794.77 1024 1024 794.77 1024 512C1024 229.23 794.77 0 512 0C229.23 0 0 229.23 0 512C0 794.77 229.23 1024 512 1024Z" fill="#FF837D"/>
<path d="M302.44 417.44C286.501 396.035 277.976 370.017 278.16 343.33C278.019 325.226 281.95 307.321 289.66 290.94C327.502 299.75 364.022 313.498 398.28 331.83C358.66 351 326.72 381.66 302.44 417.44ZM721.57 417.44C737.509 396.035 746.034 370.017 745.85 343.33C745.85 324.16 742.02 306.27 734.35 290.94C696.168 298.6 659.484 312.41 625.73 331.83C664.06 351 697.28 381.66 721.56 417.44H721.57ZM569.5 476.22C565.781 476.251 562.223 477.743 559.593 480.373C556.963 483.003 555.471 486.561 555.44 490.28C555.44 492.84 556.72 495.39 558 497.95C563.11 505.62 570.78 510.73 579.72 513.28C582.334 507.683 583.643 501.566 583.55 495.39V489C582.28 481.33 577.17 476.22 569.5 476.22ZM743.28 552.89V690.89C743.28 702.074 738.837 712.8 730.929 720.709C723.02 728.617 712.294 733.06 701.11 733.06C689.926 733.06 679.2 728.617 671.291 720.709C663.383 712.8 658.94 702.074 658.94 690.89V656.39H362.49V690.89C362.49 696.428 361.399 701.911 359.28 707.028C357.161 712.144 354.054 716.793 350.139 720.709C346.223 724.624 341.574 727.731 336.458 729.85C331.341 731.969 325.858 733.06 320.32 733.06C314.782 733.06 309.298 731.969 304.182 729.85C299.066 727.731 294.417 724.624 290.501 720.709C286.585 716.793 283.479 712.144 281.36 707.028C279.241 701.911 278.15 696.428 278.15 690.89V559.28C278.15 432.78 376.54 325.44 503.05 320.28C635.95 315.21 744.56 421.27 743.29 552.89H743.28ZM634.67 496.67C630.84 495.39 627 495.39 624.45 499.23C620.62 504.34 615.51 509.45 609.12 512.01V506.9C609.12 492.84 604.01 481.34 596.34 471.12C589.95 462.18 581.01 457.06 569.51 457.06C551.62 457.06 536.29 472.39 536.29 490.28C536.082 498.216 538.809 505.95 543.95 512C549.06 519.67 556.73 524.78 564.4 528.61C559.29 531.17 552.9 533.72 546.51 533.72C544.633 533.67 542.764 533.996 541.015 534.68C539.266 535.364 537.672 536.391 536.327 537.701C534.981 539.011 533.912 540.578 533.181 542.308C532.451 544.038 532.075 545.897 532.075 547.775C532.075 549.653 532.451 551.512 533.181 553.242C533.912 554.972 534.981 556.538 536.327 557.849C537.672 559.159 539.266 560.186 541.015 560.87C542.764 561.553 544.633 561.88 546.51 561.83H552.9C563.225 561.796 573.34 558.915 582.133 553.504C590.926 548.093 598.057 540.361 602.74 531.16C616.8 526.05 628.3 517.1 635.96 504.33C638.5 500.5 637.23 495.39 634.67 496.67Z" fill="white"/>
</g>
<defs>
<clipPath id="clip0_2_3180">
<rect width="1024" height="1024" fill="white"/>
</clipPath>
</defs>
</svg>
